icons/polaroid-2-line.svg

<svg xmlns="http://www.w3.org/2000/svg" width="24" height="24" fill="none"><g clip-path="url(#a)"><g><path fill="#121212" d="M19 15V5H5V15H19ZM3 3.993C3 3.445 3.445 3 3.993 3H20.007C20.555 3 21 3.445 21 3.993V20.007C20.9997 20.2703 20.895 20.5227 20.7089 20.7089C20.5227 20.895 20.2703 20.9997 20.007 21H3.993C3.72972 20.9997 3.4773 20.895 3.29114 20.7089C3.10497 20.5227 3.00026 20.2703 3 20.007V3.993ZM12 12C12.5304 12 13.0391 11.7893 13.4142 11.4142C13.7893 11.0391 14 10.5304 14 10C14 9.46957 13.7893 8.96086 13.4142 8.58579C13.0391 8.21071 12.5304 8 12 8C11.4696 8 10.9609 8.21071 10.5858 8.58579C10.2107 8.96086 10 9.46957 10 10C10 10.5304 10.2107 11.0391 10.5858 11.4142C10.9609 11.7893 11.4696 12 12 12ZM12 14C10.9391 14 9.92172 13.5786 9.17157 12.8284C8.42143 12.0783 8 11.0609 8 10C8 8.93913 8.42143 7.92172 9.17157 7.17157C9.92172 6.42143 10.9391 6 12 6C13.0609 6 14.0783 6.42143 14.8284 7.17157C15.5786 7.92172 16 8.93913 16 10C16 11.0609 15.5786 12.0783 14.8284 12.8284C14.0783 13.5786 13.0609 14 12 14ZM6 6H8V8H6V6ZM6 17V19H18V17H6Z"/></g></g><defs><clipPath id="a"><rect width="24" height="24" fill="white"/></clipPath></defs></svg>

<svg width="24" height="24" fill="none" xmlns="http://www.w3.org/2000/svg"><g clip-path="url(#a)"><path d="M19 15V5H5v10h14ZM3 3.993C3 3.445 3.445 3 3.993 3h16.014c.548 0 .993.445.993.993v16.014a.994.994 0 0 1-.993.993H3.993A.994.994 0 0 1 3 20.007V3.993ZM12 12a2 2 0 1 0 0-4 2 2 0 0 0 0 4Zm0 2a4 4 0 1 1 0-8 4 4 0 0 1 0 8ZM6 6h2v2H6V6Zm0 11v2h12v-2H6Z" /></g><defs><clipPath id="a"><path fill="#fff" d="M0 0h24v24H0z"/></clipPath></defs></svg>
